axiom X
iter 200
initial_pos 0,500
canvas 500,500

STEP = 5
SPEED = 0.0005
RADIUS = 0.6
xRe = 0
xIm = 0
oldXRe = 0

J: jump STEP
r: rotate -pi/2
[: push
]: pop
s: xRe = 0; xIm = 0; oldXRe = 0
I: oldXRe = xRe; xRe = xRe * xRe - xIm * xIm + (POSX - 350 - TIME * 0.15) * 0.005 / (TIME*SPEED+1); xIm = 2 * oldXRe * xIm + (POSY - 250) * 0.005 / (TIME*SPEED+1)
F: dot STEP*RADIUS*signum(4 - xRe * xRe - xIm * xIm)

X -> [rY]JX
Y -> JsIIIIIIIIIIIIIIIIIIIIIIIIIIIIIIIIIIIIIFY

